X: 30242
T: Old Joe's
R: jig
M: 6/8
K: Dmajor
|:f2A ~A3|BAG ~A3|BdB ABA|Bcd efg|
f2A ~A3|BAG ~A3|BdB ABA|Bdc d2e:|
|:~f3 efe|dBA d2e|f2a afe|f2a a2a|
~f3 efe|dBA d2e|f2A ABA|Bdc d2e:|

